!!!COM: Anon.
!!!OCL: Francis James Child
!!!OPR: The English and Scottish Popular Ballads
!!!OVM: Vol. 1
!!!ONB: Ballad No. 52, Tune No. 1
!!!ONM: No. 52
!!!PDT: 1882
!!!YEM: Public domain.
**kern
*M4/4
{4f
=1
4g
8.g
16f
4d
8d
8f
=2
8g
8g
8g
8f
4d
4d}
!! Second phrase:
=3
{8b-
8b-
8b-
8b-
4cc
8b-
8cc
=4
2dd}
4r
!! Third phrase:
{4b-
=5
4.cc
8dd
4b-
8g
8g
=6
8g
8a
8g
8f
4d}
!! Fourth phrase:
{8b-
8a
=7
4.g
8f
4d
8d
8f
=8
4.g
8f
4d}
!! Fifth phrase:
{8b-
8a
=9
4.g
8f
8d
8e
8f
8b-
=10
2g}
4r
====
*-
!!!OCY: Britain; England
!!!PPP: Boston
!!!ODT: <1882
!!!AFR: folk song
!!!AST: monophony
!!!AMT: simple quadruple
!!!SCA: Child Collection
!!!AIN: vox
!!!EEV: 1.0
!!!RDT: 1987 June
!!!YER: 1994 August 10
!!!VTS: 652652838
